X:1
T:Title
%%score { 1 | 2 }
L:1/8
M:4/4
K:Eb
V:1 treble nm="Grand Piano"
V:2 bass 
V:1
 z4 z2 z[Q:1/4=100] [GB] | [GB][GB][_G=A][=GB] [_Ac][GB]GE | .D2 [DA]2 [DA]3 [DA] | %3
 [FA][FA][=EG][FA] [Bd][Ac][GB][FA] | [EG]2 [Ac]2 [GB]3 [GB] | [GB][GB][_G=A][=GB] [Ge]3 [EG] | %6
 [CG][CF][C=E][CF] [_Ec]3 [Ec] | [EB][GB][Bd][CAc] [DGB][CFA][B,EG][A,DF] | %8
[M:17/16] [G,E]-<[Q:1/4=94][G,E][B,EG]-<[B,EG][G,E]/-[G,E]/-[G,E]/-[G,E]/-[G,E]/-[G,E]-<[G,E][Q:1/4=98][Q:1/4=97][Q:1/4=95][Q:1/4=92][Q:1/4=91][Q:1/4=89][Q:1/4=88][Q:1/4=86][Q:1/4=84][Q:1/4=83][Q:1/4=81][Q:1/4=80][Q:1/4=78][Q:1/4=77] |] %9
V:2
 z4 z2 z [E,E] | [E,E][E,E][E,E][E,E] [E,E][E,E][E,B,E][E,G,B,] | %2
 .[B,,F,B,]2 [B,,F,]2 [B,,F,]3 [B,,F,] | %3
 [B,,B,][B,,B,][B,,B,][B,,B,] [B,,B,][B,,B,][B,,B,][B,,B,] | [E,B,]2 [E,E]2 [E,E]3 [E,E] | %5
 [E,E][E,E][E,E][E,E] [E,B,]3 [E,B,] | [A,,A,][A,,A,][A,,A,][A,,A,] [A,,A,]3 [A,,A,] | %7
 [B,,G,][B,,B,][B,,B,]B,, B,,B,,B,,B,, |[M:17/16] E,-<E,E,-<E,E,/-E,/-E,/-E,/-E,/-E,-<E, |] %9

